images/like.svg

<svg height="250" viewBox="0 0 250 250" width="250" xmlns="http://www.w3.org/2000/svg" xmlns:xlink="http://www.w3.org/1999/xlink"><linearGradient id="a" gradientUnits="userSpaceOnUse" x1="5.320312" x2="244.679687" y1="124.9999995" y2="124.9999995"><stop offset="0" stop-color="#d2f0f0"/><stop offset="1" stop-color="#f0e6b4"/></linearGradient><path d="m244.679688 125c0 66.097656-53.582032 119.679688-119.679688 119.679688s-119.679688-53.582032-119.679688-119.679688 53.582032-119.679688 119.679688-119.679688 119.679688 53.582032 119.679688 119.679688zm0 0" fill="url(#a)"/><g fill="#28646e"><path d="m125 249.734375c-68.75 0-124.734375-55.984375-124.734375-124.734375s55.984375-124.734375 124.734375-124.734375 124.734375 55.984375 124.734375 124.734375-55.984375 124.734375-124.734375 124.734375zm0-238.832031c-62.898438 0-114.097656 51.199218-114.097656 114.097656s51.199218 114.097656 114.097656 114.097656 114.097656-51.199218 114.097656-114.097656-51.199218-114.097656-114.097656-114.097656zm0 0"/><path d="m118.003906 97.253906c-1.125 0-2.410156-.480468-3.214844-1.4375-1.605468-1.757812-1.445312-4.476562.324219-6.074218 12.046875-10.550782 17.507813-19.34375 18.472657-20.941407 3.53125-6.234375 9.316406-9.433593 15.257812-8.472656 2.410156.320313 4.015625 2.398437 3.695312 4.792969-.320312 2.398437-2.410156 4-4.820312 3.679687-3.53125-.480469-5.78125 2.875-6.746094 4.316407-1.125 1.917968-7.066406 11.667968-20.078125 23.179687-.804687.636719-1.925781.957031-2.890625.957031zm0 0"/><path d="m45.882812 169.507812c-1.285156 0-2.410156-.476562-3.214843-1.597656-1.445313-1.757812-1.285157-4.476562.484375-6.074218 4.175781-3.515626 12.847656-8.953126 15.738281-10.550782 2.089844-1.117187 4.660156-.160156 5.785156 1.917969s.160157 4.636719-1.929687 5.757813c-2.246094 1.117187-10.277344 6.234374-14.132813 9.429687-.804687.800781-1.769531 1.117187-2.730469 1.117187zm0 0"/><path d="m153.664062 129.066406c1.765626 1.597656 3.691407.957032 5.460938-.800781 12.367188-11.828125 25.539062-30.210937 29.875-39.804687.964844-2.078126 2.890625-3.195313 4.820312-2.398438 2.410157.960938 2.410157 5.117188.160157 9.433594-5.78125 11.667968-13.652344 24.617187-29.394531 40.921875-1.445313 1.601562-1.285157 3.679687 0 4.796875 1.445312 1.277344 3.695312 1.117187 5.78125-.960938 8.191406-8.3125 13.65625-14.703125 18.3125-21.257812 1.285156-1.761719 2.730468-2.398438 4.175781-2.078125 2.089843.476562 2.410156 2.394531 1.765625 4.792969-.960938 3.839843-11.882813 17.90625-16.0625 22.699218-11.5625 12.949219-23.289063 19.984375-45.617188 31.652344-7.871094 3.996094-13.652344 7.996094-17.1875 13.910156-3.210937 5.433594-4.175781 7.191406-4.496094 7.832032-1.285156 2.558593-.320312 5.914062 2.410157 7.191406.800781.320312 1.445312.480468 2.246093.480468 2.089844 0 4.015626-1.277343 4.820313-3.195312 0 0-.160156.160156 4.015625-7.035156 2.089844-3.355469 6.425781-8.472656 13.171875-11.507813 22.328125-10.230469 31.644531-18.226562 44.652344-31.171875 5.945312-5.917968 14.136719-18.546875 16.386719-22.222656 6.261718-10.550781 3.050781-19.5-2.730469-20.941406-.484375-.160156-.644531-.636719-.484375-1.117188 4.339844-7.515625 6.425781-12.628906 7.230468-16.625 1.125-5.4375-.484374-11.992187-7.871093-13.589844-.320313-.160156-.644531-.480468-.484375-.957031.484375-1.757812.964844-3.835937 1.285156-5.277343 1.609375-7.03125-2.890625-13.425782-8.351562-14.546876-3.855469-.796874-7.226563 0-10.117188 2.078126-.484375.320312-.964844.160156-1.285156-.160157-1.125-1.277343-3.054688-2.558593-5.625-2.558593-4.65625-.15625-9.316406 1.28125-12.6875 8.472656-2.410156 5.117187-5.945313 11.992187-16.546875 23.660156-9.796875 10.871094-23.449219 21.261719-31.804688 26.855469-1.445312.960937-3.53125.800781-3.371093-1.277344.320312-3.199219 3.695312-24.140625 4.335937-30.375.964844-10.070313-4.496094-14.707031-10.601563-15.503906-4.976562-.640625-12.6875.796875-16.863281 12.148437-2.410156 6.714844-7.550781 17.585938-11.886719 35.167969-3.054687 12.46875-3.535156 26.855469-.804687 43.480469.160156.960937 0 2.078125-.480469 2.878906-3.375 5.433594-8.191406 12.628906-10.925781 18.863281-1.121094 2.558594-.160156 5.59375 2.25 6.875.804687.476563 1.605469.636719 2.570313.636719 1.929687 0 3.855468-1.117188 4.820312-3.035156 1.605469-3.359375 4.976562-9.753906 6.261719-12.46875 2.25-4.636719 3.695312-7.675782 4.339843-9.59375.480469-1.757813.960938-3.835938-.160156-8.3125-1.769531-7.671875-2.25-22.21875.800782-35.167969 4.175781-16.945313 11.40625-35.96875 12.691406-39.164063 1.285156-3.199218 3.050781-4.15625 4.816406-3.996093 1.769531.160156 5.300781.957031 4.339844 7.351562-1.769532 11.511719-4.179688 26.058594-4.980469 31.011719-.484375 2.398438-.804687 7.996094 3.53125 10.550781 3.535156 2.078125 7.390625.960938 11.566406-1.917969 9.476563-6.394531 26.023438-19.179687 36.300781-30.691406 10.765626-12.148437 14.296876-19.34375 17.027344-25.898437 1.285156-3.035157 4.5-2.875 5.621094-2.554688 1.125.320313 2.570312 1.917969 1.609375 5.113281-2.410156 7.992188-12.371094 26.21875-31.324219 43.320313-2.085937 1.921875-1.925781 4.15625-.800781 5.4375.960937 1.117187 3.050781 1.917969 5.300781 0 17.183594-14.546875 26.824219-31.972656 31.320313-41.242187 2.25-4.636719 3.050781-7.355469 3.695312-9.59375.964844-2.714844 3.050781-3.675782 4.496094-3.355469 2.089844.480469 3.535156 2.558593 2.730469 6.074219-.640625 3.035156-2.410156 7.992187-4.65625 12.949218-5.460938 11.667969-17.027344 27.175782-29.554688 40.441406-1.285156 1.601563-1.609375 3.679688.160156 5.277344zm0 0"/><path d="m75.359375 71.4375c.636719-.644531.476563-1.289062.160156-1.933594-.953125-2.894531-6.03125-15.289062-7.460937-17.703125-.632813-1.289062-1.585938-1.449219-2.539063-1.125-1.269531.480469-2.699219 1.609375-5.082031 3.699219-2.378906 2.09375-3.648438 3.382812-4.285156 4.667969-.476563.964843-.476563 1.769531.636718 2.574219 2.222657 1.609374 13.652344 8.53125 16.351563 9.820312.949219.320312 1.585937.644531 2.21875 0zm0 0"/><path d="m51.5 75.796875c-1.4375 0-2.078125.628906-2.238281 1.570313-.160157 1.257812 0 3.140624.480469 6.121093.476562 2.984375.957031 4.867188 1.597656 5.964844.476562.785156 1.277344 1.253906 2.554687.785156 2.554688-1.097656 14.375-7.21875 16.929688-8.945312.480469-.316407 1.117187-.785157.960937-1.570313"/><path d="m170.875 179.542969c-.78125 0-1.09375.796875-1.25 1.433593-1.097656 2.871094-4.230469 15.785157-4.703125 18.496094-.15625 1.433594.316406 2.070313 1.253906 2.390625 1.253907.320313 3.132813.320313 6.109375.160157 2.976563-.160157 4.859375-.480469 6.113282-.957032.9375-.476562 1.410156-1.117187.9375-2.550781-.78125-2.710937-5.640626-14.988281-7.050782-17.699219-.15625-.636718-.625-1.433594-1.410156-1.273437zm0 0"/><path d="m178.363281 173.535156c-.480469.816406.160157 1.464844.480469 1.953125 1.921875 2.441407 11.203125 12.207031 13.441406 14 1.121094.976563 1.921875.8125 2.722656 0 .960938-.976562 1.917969-2.605469 3.359376-5.371093 1.441406-2.769532 2.242187-4.558594 2.402343-5.859376.160157-.976562-.320312-1.792968-1.601562-2.28125-2.71875-.8125-15.84375-2.929687-18.882813-3.089843-.640625 0-1.441406-.164063-1.921875.648437zm0 0"/></g></svg>

<?xml version="1.0" encoding="UTF-8"?>
<svg xmlns="http://www.w3.org/2000/svg" xmlns:xlink="http://www.w3.org/1999/xlink" width="250px" height="250px" viewBox="0 0 250 250" version="1.1">
<defs>
<linearGradient id="linear0" gradientUnits="userSpaceOnUse" x1="0" y1="0.5" x2="1" y2="0.5" gradientTransform="matrix(239.359375,0,0,239.359375,5.320312,5.320312)">
<stop offset="0" style="stop-color:rgb(82.352942%,94.117647%,94.117647%);stop-opacity:1;"/>
<stop offset="1" style="stop-color:rgb(94.117647%,90.196079%,70.588237%);stop-opacity:1;"/>
</linearGradient>
</defs>
<g id="surface1">
<path style=" stroke:none;fill-rule:nonzero;fill:url(#linear0);" d="M 244.679688 125 C 244.679688 191.097656 191.097656 244.679688 125 244.679688 C 58.902344 244.679688 5.320312 191.097656 5.320312 125 C 5.320312 58.902344 58.902344 5.320312 125 5.320312 C 191.097656 5.320312 244.679688 58.902344 244.679688 125 Z M 244.679688 125 "/>
<path style=" stroke:none;fill-rule:nonzero;fill:rgb(15.686275%,39.215687%,43.137255%);fill-opacity:1;" d="M 125 249.734375 C 56.25 249.734375 0.265625 193.75 0.265625 125 C 0.265625 56.25 56.25 0.265625 125 0.265625 C 193.75 0.265625 249.734375 56.25 249.734375 125 C 249.734375 193.75 193.75 249.734375 125 249.734375 Z M 125 10.902344 C 62.101562 10.902344 10.902344 62.101562 10.902344 125 C 10.902344 187.898438 62.101562 239.097656 125 239.097656 C 187.898438 239.097656 239.097656 187.898438 239.097656 125 C 239.097656 62.101562 187.898438 10.902344 125 10.902344 Z M 125 10.902344 "/>
<path style=" stroke:none;fill-rule:nonzero;fill:rgb(15.686275%,39.215687%,43.137255%);fill-opacity:1;" d="M 118.003906 97.253906 C 116.878906 97.253906 115.59375 96.773438 114.789062 95.816406 C 113.183594 94.058594 113.34375 91.339844 115.113281 89.742188 C 127.160156 79.191406 132.621094 70.398438 133.585938 68.800781 C 137.117188 62.566406 142.902344 59.367188 148.84375 60.328125 C 151.253906 60.648438 152.859375 62.726562 152.539062 65.121094 C 152.21875 67.519531 150.128906 69.121094 147.71875 68.800781 C 144.1875 68.320312 141.9375 71.675781 140.972656 73.117188 C 139.847656 75.035156 133.90625 84.785156 120.894531 96.296875 C 120.089844 96.933594 118.96875 97.253906 118.003906 97.253906 Z M 118.003906 97.253906 "/>
<path style=" stroke:none;fill-rule:nonzero;fill:rgb(15.686275%,39.215687%,43.137255%);fill-opacity:1;" d="M 45.882812 169.507812 C 44.597656 169.507812 43.472656 169.03125 42.667969 167.910156 C 41.222656 166.152344 41.382812 163.433594 43.152344 161.835938 C 47.328125 158.320312 56 152.882812 58.890625 151.285156 C 60.980469 150.167969 63.550781 151.125 64.675781 153.203125 C 65.800781 155.28125 64.835938 157.839844 62.746094 158.960938 C 60.5 160.078125 52.46875 165.195312 48.613281 168.390625 C 47.808594 169.191406 46.84375 169.507812 45.882812 169.507812 Z M 45.882812 169.507812 "/>
<path style=" stroke:none;fill-rule:nonzero;fill:rgb(15.686275%,39.215687%,43.137255%);fill-opacity:1;" d="M 153.664062 129.066406 C 155.429688 130.664062 157.355469 130.023438 159.125 128.265625 C 171.492188 116.4375 184.664062 98.054688 189 88.460938 C 189.964844 86.382812 191.890625 85.265625 193.820312 86.0625 C 196.230469 87.023438 196.230469 91.179688 193.980469 95.496094 C 188.199219 107.164062 180.328125 120.113281 164.585938 136.417969 C 163.140625 138.019531 163.300781 140.097656 164.585938 141.214844 C 166.03125 142.492188 168.28125 142.332031 170.367188 140.253906 C 178.558594 131.941406 184.023438 125.550781 188.679688 118.996094 C 189.964844 117.234375 191.410156 116.597656 192.855469 116.917969 C 194.945312 117.394531 195.265625 119.3125 194.621094 121.710938 C 193.660156 125.550781 182.738281 139.617188 178.558594 144.410156 C 166.996094 157.359375 155.269531 164.394531 132.941406 176.0625 C 125.070312 180.058594 119.289062 184.058594 115.753906 189.972656 C 112.542969 195.40625 111.578125 197.164062 111.257812 197.804688 C 109.972656 200.363281 110.9375 203.71875 113.667969 204.996094 C 114.46875 205.316406 115.113281 205.476562 115.914062 205.476562 C 118.003906 205.476562 119.929688 204.199219 120.734375 202.28125 C 120.734375 202.28125 120.574219 202.441406 124.75 195.246094 C 126.839844 191.890625 131.175781 186.773438 137.921875 183.738281 C 160.25 173.507812 169.566406 165.511719 182.574219 152.566406 C 188.519531 146.648438 196.710938 134.019531 198.960938 130.34375 C 205.222656 119.792969 202.011719 110.84375 196.230469 109.402344 C 195.746094 109.242188 195.585938 108.765625 195.746094 108.285156 C 200.085938 100.769531 202.171875 95.65625 202.976562 91.660156 C 204.101562 86.222656 202.492188 79.667969 195.105469 78.070312 C 194.785156 77.910156 194.460938 77.589844 194.621094 77.113281 C 195.105469 75.355469 195.585938 73.277344 195.90625 71.835938 C 197.515625 64.804688 193.015625 58.410156 187.554688 57.289062 C 183.699219 56.492188 180.328125 57.289062 177.4375 59.367188 C 176.953125 59.6875 176.472656 59.527344 176.152344 59.207031 C 175.027344 57.929688 173.097656 56.648438 170.527344 56.648438 C 165.871094 56.492188 161.210938 57.929688 157.839844 65.121094 C 155.429688 70.238281 151.894531 77.113281 141.292969 88.78125 C 131.496094 99.652344 117.84375 110.042969 109.488281 115.636719 C 108.042969 116.597656 105.957031 116.4375 106.117188 114.359375 C 106.4375 111.160156 109.8125 90.21875 110.453125 83.984375 C 111.417969 73.914062 105.957031 69.277344 99.851562 68.480469 C 94.875 67.839844 87.164062 69.277344 82.988281 80.628906 C 80.578125 87.34375 75.4375 98.214844 71.101562 115.796875 C 68.046875 128.265625 67.566406 142.652344 70.296875 159.277344 C 70.457031 160.238281 70.296875 161.355469 69.816406 162.15625 C 66.441406 167.589844 61.625 174.785156 58.890625 181.019531 C 57.769531 183.578125 58.730469 186.613281 61.140625 187.894531 C 61.945312 188.371094 62.746094 188.53125 63.710938 188.53125 C 65.640625 188.53125 67.566406 187.414062 68.53125 185.496094 C 70.136719 182.136719 73.507812 175.742188 74.792969 173.027344 C 77.042969 168.390625 78.488281 165.351562 79.132812 163.433594 C 79.613281 161.675781 80.09375 159.597656 78.972656 155.121094 C 77.203125 147.449219 76.722656 132.902344 79.773438 119.953125 C 83.949219 103.007812 91.179688 83.984375 92.464844 80.789062 C 93.75 77.589844 95.515625 76.632812 97.28125 76.792969 C 99.050781 76.953125 102.582031 77.75 101.621094 84.144531 C 99.851562 95.65625 97.441406 110.203125 96.640625 115.15625 C 96.15625 117.554688 95.835938 123.152344 100.171875 125.707031 C 103.707031 127.785156 107.5625 126.667969 111.738281 123.789062 C 121.214844 117.394531 137.761719 104.609375 148.039062 93.097656 C 158.804688 80.949219 162.335938 73.753906 165.066406 67.199219 C 166.351562 64.164062 169.566406 64.324219 170.6875 64.644531 C 171.8125 64.964844 173.257812 66.5625 172.296875 69.757812 C 169.886719 77.75 159.925781 95.976562 140.972656 113.078125 C 138.886719 115 139.046875 117.234375 140.171875 118.515625 C 141.132812 119.632812 143.222656 120.433594 145.472656 118.515625 C 162.65625 103.96875 172.296875 86.542969 176.792969 77.273438 C 179.042969 72.636719 179.84375 69.917969 180.488281 67.679688 C 181.453125 64.964844 183.539062 64.003906 184.984375 64.324219 C 187.074219 64.804688 188.519531 66.882812 187.714844 70.398438 C 187.074219 73.433594 185.304688 78.390625 183.058594 83.347656 C 177.597656 95.015625 166.03125 110.523438 153.503906 123.789062 C 152.21875 125.390625 151.894531 127.46875 153.664062 129.066406 Z M 153.664062 129.066406 "/>
<path style=" stroke:none;fill-rule:nonzero;fill:rgb(15.686275%,39.215687%,43.137255%);fill-opacity:1;" d="M 75.359375 71.4375 C 75.996094 70.792969 75.835938 70.148438 75.519531 69.503906 C 74.566406 66.609375 69.488281 54.214844 68.058594 51.800781 C 67.425781 50.511719 66.472656 50.351562 65.519531 50.675781 C 64.25 51.15625 62.820312 52.285156 60.4375 54.375 C 58.058594 56.46875 56.789062 57.757812 56.152344 59.042969 C 55.675781 60.007812 55.675781 60.8125 56.789062 61.617188 C 59.011719 63.226562 70.441406 70.148438 73.140625 71.4375 C 74.089844 71.757812 74.726562 72.082031 75.359375 71.4375 Z M 75.359375 71.4375 "/>
<path style=" stroke:none;fill-rule:nonzero;fill:rgb(15.686275%,39.215687%,43.137255%);fill-opacity:1;" d="M 51.5 75.796875 C 50.0625 75.796875 49.421875 76.425781 49.261719 77.367188 C 49.101562 78.625 49.261719 80.507812 49.742188 83.488281 C 50.21875 86.472656 50.699219 88.355469 51.339844 89.453125 C 51.816406 90.238281 52.617188 90.707031 53.894531 90.238281 C 56.449219 89.140625 68.269531 83.019531 70.824219 81.292969 C 71.304688 80.976562 71.941406 80.507812 71.785156 79.722656 "/>
<path style=" stroke:none;fill-rule:nonzero;fill:rgb(15.686275%,39.215687%,43.137255%);fill-opacity:1;" d="M 170.875 179.542969 C 170.09375 179.542969 169.78125 180.339844 169.625 180.976562 C 168.527344 183.847656 165.394531 196.761719 164.921875 199.472656 C 164.765625 200.90625 165.238281 201.542969 166.175781 201.863281 C 167.429688 202.183594 169.308594 202.183594 172.285156 202.023438 C 175.261719 201.863281 177.144531 201.542969 178.398438 201.066406 C 179.335938 200.589844 179.808594 199.949219 179.335938 198.515625 C 178.554688 195.804688 173.695312 183.527344 172.285156 180.816406 C 172.128906 180.179688 171.660156 179.382812 170.875 179.542969 Z M 170.875 179.542969 "/>
<path style=" stroke:none;fill-rule:nonzero;fill:rgb(15.686275%,39.215687%,43.137255%);fill-opacity:1;" d="M 178.363281 173.535156 C 177.882812 174.351562 178.523438 175 178.84375 175.488281 C 180.765625 177.929688 190.046875 187.695312 192.285156 189.488281 C 193.40625 190.464844 194.207031 190.300781 195.007812 189.488281 C 195.96875 188.511719 196.925781 186.882812 198.367188 184.117188 C 199.808594 181.347656 200.609375 179.558594 200.769531 178.257812 C 200.929688 177.28125 200.449219 176.464844 199.167969 175.976562 C 196.449219 175.164062 183.324219 173.046875 180.285156 172.886719 C 179.644531 172.886719 178.84375 172.722656 178.363281 173.535156 Z M 178.363281 173.535156 "/>
</g>
</svg>
